X:1
T:Lost Is My Quiet
T:Henry Purcell
T:Lost Is My Quiet
C:Henry Purcell
%%score [ ( 1 2 ) ( 3 4 ) ] ( 5 6 ) 7
L:1/8
M:3/4
K:Fmin
V:1 treble nm="Soprano Solo" snm="S. Solo"
V:2 treble 
V:3 bass nm="Bass Solo" snm="B. Solo"
V:4 bass 
V:5 treble nm="Treble Lute in D" snm="Treb. Lute"
V:6 treble 
V:7 bass nm="Continuo" snm="Cnto."
V:1
 F3 _G F2 | D B,3 z B | (B=A) A2 z2 | d3 e d2 | c F3 z f | (f2 =e3) f | f4 z f | (fe) e2 z e | %8
w: Lost is my|qui- et, for|e- * ver,|lost is my|qui- et, for|e- * ver|lost, for|e- * ver, for|
 (e>f e2 d>)c | d4 z2 | c3 d c2 | =A F3 z B | (B_A) A2 AF | _G3 G F2 | (B>d c>)=A B2 | %15
w: e- * * * ver|lost,|lost is my|qui- et, for|e- * ver e- ver|lost is life's|hap- * * pi- est|
 =A4 (B/c/d) | (d2 c2) z2 | (c2 B2) z2 | (B2 A3) A | (A2 G>)A (BG) | =E2 C2 z G | (A2 B<G A>B | %22
w: part; lo- * st|a- ll,|a- ll,|a- ll my|ten- * der en- *|dea- vours, to|tou- * * * *|
 A>B c<A B>c | B>c d<B c>d | c3) B A2 | A3 G F2 | F6 | F3 _G F2 | D B,3 z B | (B=A) A2 z2 | %30
w: ||ch an in-|sen- si- ble|heart.|Lost is my|qui- et, for|e- * ver,|
 d3 e d2 | c F3 z f | f2 T=e3 f | f4 z f | (fe) e2 z e | (e>f e2 d>)c | d4 z2 | c3 d c2 | %38
w: lost is my|qui- et, for|e- * ver|lost, for|e- * ver, for|e- * * * ver|lost,|lost is my|
 =A F3 z B | (B_A) A2 (AF) | _G3 G F2 | (B>d c>)=A B2 | =A4 (B/c/d) | (d2 c2) z2 | (c2 B2) z2 | %45
w: qui- et, for|e- * ver e- ver|lost is life's|hap- * * pi- est|part; lo- * st|a- ll,|a- ll,|
 (B2 A3) A | (A2 G>)A (BG) | =E2 C2 z G | (A2 B<G A>B | A>B c<A B>c | B>c d<B c>d |{Td} c3) B A2 | %52
w: a- ll my|ten- * der en- *|dea- vours, to|tou- * * * *|||* an in-|
 A3 G F2 | F4 F2 | A3 B A2 | (A D2) F _G2 | E2 E2 z2 | z4 B2 | e3 f e2 | (e A2) c d2 | %60
w: sen- si- ble|heart. But|though my des-|p- air is past|cur- ing,|But|though my des-|p- air, my des|
 (d>c B>)c d2 | (c2 A2) c2 | =d3 f e2 | e3 f =d2 | e4 c2 | =A3 B c2 | d3 c B2 | c6- | c2 F2 B2 | %69
w: pa- * ir is past|cur- ing, and|much un- de-|served is my|fate; I'll|show by a|pat- ient en-|du-|* ring, my|
 =A4 f2 | d3 e f2 | _g3 f e2 | f6- | f2 B2 e2 | e3 (d c)d | c6- | c2 F2 B2 | B3 c =A2 | %78
w: Love, I'll|show by a|pat- ient en-|du-|* ring, my|Love is _ un-|mov-|'d, is un-|mov'd as her|
 !fermata!B6 |] %79
w: Hate.|
V:2
 x6 | x6 | x6 | x6 | x6 | x6 | x6 | x6 | x6 | x6 | x6 | x6 | x6 | x6 | x6 | x6 | x6 | x6 | x6 | %19
 x6 | x6 | x6 | x6 | x6 | x6 | x6 | x6 | x6 | D/C/ x x2 x x | x6 | x6 | x4 x x | x6 | x6 | x6 | %35
 x6 | x6 | x6 | x6 | x6 | x6 | x6 | (B =A3) x2 | x6 | x6 | x6 | x4 B/A/G/F/ | =E=D x2 x2 | x6 | %49
 x6 | x6 | x6 | x6 | x6 | x6 | x6 | x6 | x6 | x6 | x6 | x6 | x6 | x6 | x6 | x6 | x6 | x6 | x6 | %68
 x6 | x6 | x6 | x6 | x6 | x6 | x6 | x6 | x6 | x6 | x6 |] %79
V:3
 z6 | z6 | F,3 _G, F,2 | D, B,,3 z B, | (B,=A,) A,2 (G,/A,/)F, | C3 D C2 | A, F,3 z D | %7
w: ||Lost is my|qui- et, for|e- * ver e- * ver|lost is my|qui- et, for|
 (DC) C2 z C | (C>D C2 B,>)=A, | B,3 C B,2 | _G, E,3 z E, | (E,D,) D,2 z D, | (D,C,) C,2 (C,D,) | %13
w: e- * ver, for|e- * * * ver|lost is my|qui- et, for|e- * ver, for|e- * ver e- ver|
 B,,3 B, A,2 | _G,3 F, G,2 | F,4 z2 | z2 z2 (F,/G,/A,) | (A,2 G,2) z2 | (G,2 F,3) E, | %19
w: lost is life's|hap- pi est|part;|lo- * st|a- ll,|a- ll my|
 (D,>C, B,,>)C, D,B,, | C,2 C,2 =E,2 | (F,2 G,<=E, F,>G, | F,>G, A,<F, G,>A, | G,>A, B,<G, A,>B, | %24
w: ten- * * der en- *|dea- vours, to|tou- * * * *|||
 A,3) G, F,2 | C,3 B,, C,2 | F,6 | z6 | z6 | F,3 _G, F,2 | D, B,,3 z B, | (B,=A,) A,2 (G,/A,/)F, | %32
w: `ch an in-|sen- si- ble|heart.|||Lost is my|qui- et, for|e- * ver e- * ver|
 C3 D C2 | A, F,3 z D | (DC) C2 z C | (C>D C2 B,>)=A, | B,3 C B,2 | _G, E,3 z E, | %38
w: lost is my|qui- et, for|e- * ver, for|e- * * * ver|lost is my|qui- et, for|
 (E,D,) D,2 z D, | (D,C,) C,2 C,D, | B,,3 B, A,2 | _G,3 F, G,2 | F,4 z2 | z2 z2 (F,/G,/A,) | %44
w: e- * ver, for|e- * ver e- ver|lost is life's|hap- pi est|part;|lo- * st|
 (A,2 G,2) z2 | (G,2 F,3) E, | (D,>C, B,,>C,) D,B,, | C,2 C,2 =E,2 | (F,2 G,<=E, F,>G, | %49
w: a- ll,|a- ll my|ten- * * der en- *|dea- vours, to|tou- * * * *|
 F,>G, A,<F, G,>A, | G,>A, B,<G, A,>B, |{TB,} A,3) G, F,2 | C,3 B,, C,2 | F,6 | z6 | z4 E,2 | %56
w: ||* an in-|sen- si- ble|heart.||But|
 A,3 B, A,2 | (A, D,2) F, _G,2 | E,2 E,2 C,2 | F,3 _G, F,2 | (F, B,,2) B,, E,2 | A,,2 A,,2 A,2 | %62
w: though my des-|p- air is past|cur- ing, But|though my des-|p- air is past|cur- ing, and|
 A,3 A, _G,2 | F,3 F, B,2 | E,4 z2 | z6 | z2 z2 B,2 | =A,3 B, C2 | D3 C B,2 | C2 F,2 =A,2 | %70
w: much un- de-|served is my|fate;||I'll|show by a|pat- ient en-|du- ring my|
 B,3 B, B,,2 | E,4 A,2 | D,3 E, F,2 | _G,3 F, E,2 | F,6- | F,2 F,2 E,2 | D,3 C, B,,2 | %77
w: Love is un-|mov'd, I'll|show by a|pat- ient en-|du-|* ring, my|Love is un-|
 F,3 F, F,,2 | !fermata!B,,6 |] %79
w: mov'd as her|Hate.|
V:4
 x6 | x6 | x6 | x6 | x6 | x6 | x6 | x6 | x6 | x6 | x6 | x6 | x6 | x6 | x6 | x6 | x6 | x6 | x6 | %19
 x6 | x6 | x6 | x6 | x6 | x6 | x6 | x6 | x6 | x6 | x6 | D,/C,/ x x2 x2 | x6 | x4 CB, | %33
 A,/G,/ x x2 x2 | x6 | x6 | x6 | x6 | x6 | x6 | x6 | _G,/A,/ G,2 x G,A,/G,/ | x6 | x6 | x6 | x6 | %46
 x6 | x6 | x6 | x6 | x6 | x6 | x6 | x6 | x6 | x6 | x6 | x6 | x6 | x6 | x6 | x6 | x6 | x6 | x6 | %65
 x6 | x6 | x6 | x6 | x6 | x6 | x6 | x6 | x6 | x6 | x6 | x6 | x6 | x6 |] %79
V:5
 [B,DF]4 [CF]2 | [B,D]4 [DB]2 | [F=Ac]4 [FA]2 | [FBd]4 [FB]2 | [F=Ac]4 [FA]2 | [^Gc]4 [Gc]2 | %6
 [FAc]4 [Fd]2 | [EGc]4 [Ec]2 | [C=A]6 | [DFB]4 [DF]2 | [E_Gc]4 [Gc]2 | =A4 B2- | B2 _A2 [DF]2 | %13
 [D_G]4 [CF]2 | D4 E2 | [=A,CF]4 [DB]2- | [DB]2 [C_A]2 [CA]2- | [CA]2 [B,G]2 [B,G]2- | %18
 [B,G]2 [A,F]2 [FA-]2 | A2 G4 | [C=EG]4 [CE]2 | [CFA-]2 [C=EG]4 | [CFA]4 [DB]2 | [B,G]6 | A4 F2- | %25
 F4 =E2 | [A,F]6 | [B,DF]4 [CF]2 | [B,D]4 [DB]2 | [F=Ac]4 [FA]2 | [FBd]4 [FB]2 | [F=Ac]4 [FA]2 | %32
 [^Gc]4 [Gc]2 | [FAc]4 [Fd]2 | [EGc]4 [Ec]2 | [C=A]6 | [DFB]4 [DF]2 | [E_Gc]4 [Gc]2 | =A4 B2- | %39
 B2 _A2 [DF]2 | [D_G]4 [CF]2 | D4 E2 | [=A,CF]4 [DB]2- | [DB]2 [C_A]2 [CA]2- | %44
 [CA]2 [B,G]2 [B,G]2- | [B,G]2 [A,F]2 [FA-]2 | A2 G4 | [C=EG]4 [CE]2 | [CFA-]2 [C=EG]4 | %49
 [CFA]4 [DB]2 | [B,G]6 | A4 F2- | F4 =E2 | [A,CF]6 | A6 | A4 _G2 | [CA]6 | [DA]4 [_GB-]2 | B4 A2 | %59
 [FA]4 [Fd]2 | [AB]4 [GB]2 | [CEA]6 | [FA]4 [E-B]2 | [EFA]2 [=DFB]4 | [EGB]6 | [F=A]3 G A2 | %66
 [FB]4 [DB]2 | [=Ac]3 B [Ac-]2 | c2 B4 | [F=Ac]4 [Ac]2 | [FBd]4 [Bd]2 | [_GBe]2 [Ac]4 | d6 | %73
 [_GB]6 | [CF=A]6 | [Fc]6 | [DB]6 | B4 =A2 | !fermata![DFB]6 |] %79
V:6
 x6 | x6 | x6 | x6 | x6 | F2 ^E4 | x6 | x6 | E4 F2 | x6 | x6 | F6 | E4 x2 | x6 | B,6 | x6 | x6 | %17
 x6 | x6 | D6 | x6 | x6 | x6 | x6 | [CE]2 D4 | C6 | x6 | x6 | x6 | x6 | x6 | x6 | F2 ^E4 | x6 | %34
 x6 | E4 F2 | x6 | x6 | F6 | E4 x2 | x6 | B,6 | x6 | x6 | x6 | x6 | D6 | x6 | x6 | x6 | x6 | %51
 [CE]2 D4 | C6 | x6 | [DF]4 E2 | D6 | x6 | x6 | E6 | x6 | x6 | x6 | x6 | x6 | x6 | C6 | x6 | F6 | %68
 [Fd]6 | x6 | x6 | x6 | [FA]3 _G A2 | x6 | x6 | x6 | x6 | [CF]6 | x6 |] %79
V:7
 B,,4 =A,,2 | B,,4 _G,,2 | F,,6 | B,,6 | F,6 | C,6 | F,4 D,2 | E,3 F, _G,E, | F,2 F,,4 | B,,6 | %10
 E,6- | E,2 D,4 | C,6 | B,,4 A,,2 | _G,,6 | F,,6- | F,,6 | =E,,6 | F,,6 | B,,6 | C,6 | C,6 | %22
 F,4 D,2 | E,4 E,,2 | A,,2 B,,4 | C,4 C,,2 | F,,2 F,E, D,C, | B,,4 =A,,2 | B,,4 _G,,2 | F,,6 | %30
 B,,6 | =F,6 | C,6 | F,4 D,2 | E,3 F, _G,E, | F,2 F,,4 | B,,6 | E,6- | E,2 D,4 | C,6 | B,,4 A,,2 | %41
 _G,,6 | F,,6- | F,,6 | =E,,6 | F,,6 | B,,6 | C,6 | C,6 | F,4 D,2 | E,4 E,,2 | A,,2 B,,4 | %52
 C,4 F,,2 | F,4 E,2 | D,4 C,2 | B,,4 E,,2 | A,,6 |"C" B,,6 |"C" C,6 | D,4 D,,2 |"C" E,,6 | A,,6- | %62
 A,,4 _G,,2 | F,,2 B,,4 | E,6- | E,6 | D,4 _G,2 | F,6- | F,6- | F,4 F,,2 | B,,6 | E,,2 A,,4 | D,6 | %73
 E,6 | F,2 F,,2 G,,2 | =A,,6 | B,,4 _G,,2 | F,,6 | !fermata!B,,6 |] %79

